X: 174
%
U:~=!turn!
T: Fanny Farquharson
C:
O:Scotland
B:Keith Norman MacDonald : "The Skye collection of the best reels & strathspeys extant" : 1887
Z:Ralph Palmer
R:Strathspey
M:C
L:1/8
K:D
A, | D<DF>D E>DF>D | A,<A,A,>B, E2 EF | D<DF>D E>DF>D | A,<A,A,>B, D2 D :| f | d<df>d e>df>d | B>AB<d e3 f |
d<df>d e>df>d | A>BA<F D2 Df | d<df>d e>df>d | B>AB<d e3 f | a>fed B<dA>F | G>BA<F D2 D |]


